cssgg/menu-hotdog.svg

<svg
  width="24"
  height="24"
  viewBox="0 0 24 24"
  fill="none"
  xmlns="http://www.w3.org/2000/svg"
>
  <path
    d="M7 6C5.34315 6 4 7.34315 4 9H20C20 7.34315 18.6569 6 17 6H7Z"
    fill="currentColor"
  />
  <path
    d="M7 18C5.34315 18 4 16.6569 4 15H20C20 16.6569 18.6569 18 17 18H7Z"
    fill="currentColor"
  />
  <path
    d="M3 11C2.44772 11 2 11.4477 2 12C2 12.5523 2.44772 13 3 13H21C21.5523 13 22 12.5523 22 12C22 11.4477 21.5523 11 21 11H3Z"
    fill="currentColor"
  />
</svg>

<svg viewBox="0 0 24 24" xmlns="http://www.w3.org/2000/svg"><g><path d="M7 6C5.34 6 4 7.34 4 9h16c0-1.66-1.35-3-3-3H7Z"/><path d="M7 18c-1.66 0-3-1.35-3-3h16c0 1.65-1.35 3-3 3H7Z"/><path d="M3 11c-.56 0-1 .44-1 1 0 .55.44 1 1 1h18c.55 0 1-.45 1-1 0-.56-.45-1-1-1H3Z"/></g></svg>
